src/img/menu-button.svg

<svg viewBox="0 0 36 36" xmlns="http://www.w3.org/2000/svg"><path d="m286 12c-9.9405 0-18 8.0595-18 18s8.0595 18 18 18 18-8.0595 18-18c-.0105-9.936-8.064-17.9895-18-18zm-6.75 22.5h13.5c.828 0 1.5.672 1.5 1.5s-.672 1.5-1.5 1.5h-13.5c-.828 0-1.5-.672-1.5-1.5s.672-1.5 1.5-1.5zm-1.5-4.5c0-.828.672-1.5 1.5-1.5h13.5c.828 0 1.5.672 1.5 1.5s-.672 1.5-1.5 1.5h-13.5c-.828 0-1.5-.672-1.5-1.5zm15-4.5h-13.5c-.828 0-1.5-.672-1.5-1.5s.672-1.5 1.5-1.5h13.5c.828 0 1.5.672 1.5 1.5s-.672 1.5-1.5 1.5z" transform="translate(-268 -12)"/></svg>

<?xml version="1.0" encoding="UTF-8"?>
<svg viewBox="0 0 36 36" version="1.1" xmlns="http://www.w3.org/2000/svg" xmlns:xlink="http://www.w3.org/1999/xlink">
    <!-- Generator: Sketch 64 (93537) - https://sketch.com -->
    <title>Menu Button</title>
    <desc>Created with Sketch.</desc>
    <g id="Symbols" stroke="none" stroke-width="1" fill-rule="evenodd">
        <g id="Page-Elements-4-|-Mobile/Navbar" transform="translate(-268.000000, -12.000000)" fill-rule="nonzero">
            <g id="Navbar">
                <path d="M286,12 C276.0595,12 268,20.0595 268,30 C268,39.9405 276.0595,48 286,48 C295.9405,48 304,39.9405 304,30 C303.9895,20.064 295.936,12.0105 286,12 Z M279.25,34.5 L292.75,34.5 C293.578,34.5 294.25,35.172 294.25,36 C294.25,36.828 293.578,37.5 292.75,37.5 L279.25,37.5 C278.422,37.5 277.75,36.828 277.75,36 C277.75,35.172 278.422,34.5 279.25,34.5 Z M277.75,30 C277.75,29.172 278.422,28.5 279.25,28.5 L292.75,28.5 C293.578,28.5 294.25,29.172 294.25,30 C294.25,30.828 293.578,31.5 292.75,31.5 L279.25,31.5 C278.422,31.5 277.75,30.828 277.75,30 Z M292.75,25.5 L279.25,25.5 C278.422,25.5 277.75,24.828 277.75,24 C277.75,23.172 278.422,22.5 279.25,22.5 L292.75,22.5 C293.578,22.5 294.25,23.172 294.25,24 C294.25,24.828 293.578,25.5 292.75,25.5 Z" id="Menu-Button"></path>
            </g>
        </g>
    </g>
</svg>
